icons/glyphs/glyph-volume-full.svg

<?xml version="1.0" encoding="UTF-8" standalone="no"?><svg height="22" viewBox="0 0 5.8208332 5.8208335" width="22" xmlns="http://www.w3.org/2000/svg"><sodipodi:namedview/><metadata><rdf:RDF><cc:Work><dc:format>image/svg+xml</dc:format><dc:type/><dc:title/></cc:Work></rdf:RDF></metadata><path d="m3.1362427 0-2.4122559 1.94045h-.7239868v1.9399334h.7239868l2.4122559 1.9404499zm.7358724.51159669v.55448811c.8330692.3002018 1.4061157 1.0013899 1.4061157 1.8035074 0 .8021172-.5730465 1.5033056-1.4061157 1.8035074v.5550051c1.1225448-.327687 1.9487184-1.2487026 1.9487182-2.3585125 0-1.109805-.8261813-2.03030467-1.9487182-2.35799551zm-.0108521 1.10897621-.0015611.5973795c.2058284.1433225.3415811.3782837.3415811.6500896.0000002.2718052-.1357524.5062503-.3415811.6495727l.00156.6015136c.5039392-.1990778.8619638-.6851962.8619638-1.2495361 0-.5643606-.3579958-1.0499551-.8619627-1.2490193z" fill="#fff"/></svg>

<?xml version="1.0" encoding="UTF-8" standalone="no"?>
<!-- Created with Inkscape (http://www.inkscape.org/) -->

<svg
   xmlns:dc="http://purl.org/dc/elements/1.1/"
   xmlns:cc="http://creativecommons.org/ns#"
   xmlns:rdf="http://www.w3.org/1999/02/22-rdf-syntax-ns#"
   xmlns:svg="http://www.w3.org/2000/svg"
   xmlns="http://www.w3.org/2000/svg"
   xmlns:sodipodi="http://sodipodi.sourceforge.net/DTD/sodipodi-0.dtd"
   xmlns:inkscape="http://www.inkscape.org/namespaces/inkscape"
   width="22"
   height="22"
   viewBox="0 0 5.8208332 5.8208335"
   version="1.1"
   id="svg8"
   inkscape:version="0.92+devel 15698 custom"
   sodipodi:docname="glyph-volume-full.svg">
  <defs
     id="defs2" />
  <sodipodi:namedview
     id="base"
     pagecolor="#002466"
     bordercolor="#ffffff"
     borderopacity="0.29019608"
     inkscape:pageopacity="1"
     inkscape:pageshadow="2"
     inkscape:zoom="18.681818"
     inkscape:cx="11"
     inkscape:cy="11"
     inkscape:document-units="px"
     inkscape:current-layer="svg8"
     inkscape:document-rotation="0"
     showgrid="false"
     units="px"
     inkscape:showpageshadow="false"
     borderlayer="true"
     inkscape:window-width="1920"
     inkscape:window-height="1054"
     inkscape:window-x="0"
     inkscape:window-y="0"
     inkscape:window-maximized="1"
     inkscape:snap-object-midpoints="true"
     inkscape:snap-page="true"
     inkscape:snap-bbox="true"
     inkscape:snap-bbox-edge-midpoints="true"
     inkscape:snap-midpoints="true"
     inkscape:snap-center="true"
     inkscape:bbox-paths="true"
     inkscape:bbox-nodes="true"
     inkscape:snap-bbox-midpoints="true"
     inkscape:snap-smooth-nodes="true"
     inkscape:snap-intersection-paths="true"
     inkscape:object-paths="true"
     inkscape:snap-global="false" />
  <metadata
     id="metadata5">
    <rdf:RDF>
      <cc:Work
         rdf:about="">
        <dc:format>image/svg+xml</dc:format>
        <dc:type
           rdf:resource="http://purl.org/dc/dcmitype/StillImage" />
        <dc:title></dc:title>
      </cc:Work>
    </rdf:RDF>
  </metadata>
  <path
     inkscape:connector-curvature="0"
     id="path4147"
     d="M 3.1362427,0 0.7239868,1.94045 H 0 V 3.8803834 H 0.7239868 L 3.1362427,5.8208333 Z M 3.8721151,0.51159669 V 1.0660848 c 0.8330692,0.3002018 1.4061157,1.0013899 1.4061157,1.8035074 0,0.8021172 -0.5730465,1.5033056 -1.4061157,1.8035074 v 0.5550051 c 1.1225448,-0.327687 1.9487184,-1.2487026 1.9487182,-2.3585125 0,-1.109805 -0.8261813,-2.03030467 -1.9487182,-2.35799551 z M 3.861263,1.6205729 3.8597019,2.2179524 C 4.0655303,2.3612749 4.201283,2.5962361 4.201283,2.868042 c 2e-7,0.2718052 -0.1357524,0.5062503 -0.3415811,0.6495727 l 0.00156,0.6015136 C 4.3652011,3.9200505 4.7232257,3.4339321 4.7232257,2.8695922 c 0,-0.5643606 -0.3579958,-1.0499551 -0.8619627,-1.2490193 z"
     style="fill:#ffffff;fill-opacity:1;stroke:none;stroke-width:0.48506942"
     inkscape:label="#glyph" />
</svg>
